X: 29
T: Out On The Ocean
Z: Sean Perry
S: https://thesession.org/tunes/108#setting50922
R: jig
M: 6/8
L: 1/8
K: Gmaj
|:D2B BAG|B/c/dB ABA|GED G2A|~B3 AGE|
D2B BAG|B/c/dB ABA|GED G2A|1BGF G3:|2BGF GBd||
ege edB|ege edB|ded dBA|ded dBA|
G2A B2d|e/f/ge dBA|GED G2A|BGF GBd|
ege edB|ege edB|ded def|gfe dBA|
G2A B2d|e/f/ge dBA|GED G2A|BGF G3||

